X: 3041
T: Minuet
%R: minuet, waltz
B: Henry Playford "Apollo's Banquet", London 1687 (5th Edition)
F: https://archive.org/details/apollosbanquetco01rugg
Z: 2017 John Chambers <jc:trillian.mit.edu>
M: 3/4
L: 1/8
K: Bb
% - - - - - - - - - -
|:\
B3 c d2 | G2 g4 | (^f3 =e/f/) g2 | d3 e f2 |\
g2 c3 B | B6 ::\
f3 e d2 | c2 d4 |
B4 A2 | d3 c B2 |\
A2 B2 (AG) | ^F6 | G3 A B2 | c2 d2 e2 |\
d2 =e2 (^f=e/f/) | g3 d c2 | B2 A3 G | G6 |]
% - - - - - - - - - -

%%sep 1 1 500
%%sep 1 1 500

